!!!!SEGMENT: pl-kk--kk-i-1--011_anonim--patrem-omnipotentem.krn
!!!cenid: 15xx:691
!!!COM: Anonim
!!!COM-rismid: pe30004985
!!!CDT:
!!!CNT:
!!!OTL: Patrem omnipotentem
!!!PDT:
!!!AGN:
!!!SMS-siglum: PL-Kk
!!!SMS-shelfmark: Kk.I.1
!!!SMS-shelfwork: 011 W
!!!SMS-variant:
!!!SMS-altvar:
!!!NIFC-rismid: 300257965
!!!URL-scan: http://repozytorium.nifc.pl/skany/pl-kk-nut--i-1
!!!ONB-nifc: UWAGA: Cantus (s. 62r-64v, skan 0064-0067), Altus (s. 63r-65v, skan 0255-0258), Tenor (s. 62r-63ar, skan 0450-0452), Bassus (s. 61r-63r, skan 0622-0624).
!!!key: d:dor
**kern	**text	**kern	**text	**kern	**text	**kern	**text
*part4	*part4	*part3	*part3	*part2	*part2	*part1	*part1
*staff4	*staff4	*staff3	*staff3	*staff2	*staff2	*staff1	*staff1
*I"BASSVS	*	*I"TENOR	*	*I"ALTVS	*	*I"CANTVS	*
*I'B	*	*I'T	*	*I'A	*	*I'C	*
*ICvox	*	*ICvox	*	*ICvox	*	*ICvox	*
*Ibass	*	*Itenor	*	*Ialto	*	*Isoprn	*
*clefF4	*	*clefC4	*	*clefC4	*	*clefC3	*
*d:dor	*	*d:dor	*	*d:dor	*	*d:dor	*
*k[]	*	*k[]	*	*k[]	*	*k[]	*
*M2/1	*	*M2/1	*	*M2/1	*	*M2/1	*
*met(c|)	*	*met(c|)	*	*met(c|)	*	*met(c|)	*
=1	=1	=1	=1	=1	=1	=1	=1
!	!	!	!	!LO:TX:t=P:problem= klucz tenorowy dla A	!	!LO:TX:t=P:problem= klucz altowy dla S	!
1r	.	0r	.	1d	Pa-	0r	.
1D	Pa-	.	.	2A/	-trem	.	.
.	.	.	.	1d	.	.	.
=2	=2	=2	=2	=2	=2	=2	=2
1AA	-trem	0r	.	.	.	1r	.
.	.	.	.	2c\	Om-	.	.
1D	o(m-	.	.	2A/	-ni-	1d	Pa-
.	.	.	.	2.B/	-po-	.	.
=3	=3	=3	=3	=3	=3	=3	=3
2C/	-n)i-	1r	.	.	.	1A	-trem
.	.	.	.	4A/	.	.	.
2AA/	-po-	.	.	1A	-ten-	.	.
1BB	-te(n)-	1d	Pa-	.	.	1d	Om-
.	.	.	.	2G/	-tem	.	.
=4	=4	=4	=4	=4	=4	=4	=4
1AA	-te(m)	1A	-trem	1A	.	2c/	-ni-
.	.	.	.	.	.	2A/	-po-
1r	.	1d	O(mn)-	1r	.	1B	-te(n)-
=5	=5	=5	=5	=5	=5	=5	=5
2r	.	2c\	-i-	0r	.	1A	-te(m)
1A	fac-	2A/	-po-	.	.	.	.
.	.	1B	-ten-	.	.	2r	.
2G\	-to-	.	.	.	.	1e	f(a)c-
=6	=6	=6	=6	=6	=6	=6	=6
2A\	-re(m)	2A/	-tem	2r	.	.	.
2F\	c(ae)-	1A	f(a)c-	2A/	fac-	2d\	-to-
1E	-li	.	.	1B	-to-	2e\	-r(em)-
.	.	2G/	-to-	.	.	2e\	-c(ae)-
=7	=7	=7	=7	=7	=7	=7	=7
2AA/	e(t)	2A/	-rem	2c\	-re(m)	2c/	-li
2D/	ter-	2F/	.	2A/	c(ae)-	1d	et
1AA	-re	1E	c(ae)-	2A/	-li	.	.
.	.	.	.	2E/	et	2c/	t(er)-
=8	=8	=8	=8	=8	=8	=8	=8
2r	.	2D/	-li	4F/	.	1d	-re
.	.	.	.	4G/	.	.	.
*	*ij	*	*	*	*	*	*
2D/	e(t)	2F/	e(t)	4A/	.	.	.
!	!	!	!	!LO:SIC:v:t=custos c	!	!	!
.	.	.	.	4B/	.	.	.
!LO:SIC:v:t=custos BB	!	!	!	!	!	!	!
!	!	!	!	!LO:LB:g=original	!	!	!
2AA/	ter-	2E/	.	2c\	.	1r	.
!LO:LB:g=original	!	!	!	!	!	!	!
2BB-X/	.	2D/	ter-	1d	ter-	.	.
=9	=9	=9	=9	=9	=9	=9	=9
1AA	-re	1E	-re	.	.	2r	.
.	.	.	.	2c\	-re	2e\	vi-
*	*Xij	*	*	*	*	*	*
!	!	!LO:SIC:v:t=custos E	!	!	!	!LO:SIC:v:t=custos f	!
2r	.	1D	.	1d	.	2f\	-ſi-
1D	ui-	.	.	.	.	1f	-bi-
!	!	!LO:LB:g=original	!	!	!	!LO:LB:g=original	!
=10	=10	=10	=10	=10	=10	=10	=10
.	.	2r	.	2r	.	.	.
2C/	-ſi-	1E	vi-	1c	vi-	2e\	-li-
2AA/	-bi-	.	.	.	.	1e	-um
2C/	-li-	2E/	-ſi-	2c\	-ſi-	.	.
=11	=11	=11	=11	=11	=11	=11	=11
4GG/	-um	2G/	-bi-	2B\	-bi-	1.d	om-
4AA/	.	.	.	.	.	.	.
4BB/	.	2G/	-li-	2B\	-li-	.	.
4C/	.	.	.	.	.	.	.
4D/	.	2F/	-um	1A	-u(m)	.	.
4E\	o-	.	.	.	.	.	.
2.F\	-mni-	2.D/	om-	.	.	2d\	-ni-
=12	=12	=12	=12	=12	=12	=12	=12
*	*	*	*	*	*	*lig	*
.	.	.	.	1r	.	1d	-(um)
4E\	.	4E/	.	.	.	.	.
2D/	.	2F/	.	.	.	.	.
1C	.	2G/	-ni-	2r	.	1e	.
.	.	1A	-u(m)	2A/	et	.	.
*	*	*	*	*	*	*Xlig	*
=13	=13	=13	=13	=13	=13	=13	=13
1BB	-um	.	.	2B\	in-	1r	.
.	.	2G/	.	2d\	-vi-	.	.
1AA	.	0A	.	1c	-ſi-	2r	.
.	.	.	.	.	.	2e\	et
=14	=14	=14	=14	=14	=14	=14	=14
0r	.	.	.	2d\	-bi-	2f\	in-
.	.	.	.	2f\	-li-	2a\	-vi-
.	.	1r	.	2e\	-u(m)	2g\	-ſi-
.	.	.	.	1d	.	2f\	-bi-
=15	=15	=15	=15	=15	=15	=15	=15
2r	.	2r	.	.	.	1e	-li-
2AA/	Et	2E/	Et	2c\	.	.	.
2D/	in	2F/	in	2d\	et	2d\	-um
!LO:SIC:v:t=custos AA	!	!	!	!	!	!	!
2D/	v-	2F/	v-	2A/	.	2d\	et
!LO:LB:g=original	!	!	!	!	!	!	!
=16	=16	=16	=16	=16	=16	=16	=16
2AA/	-nu(m)	2E/	-nu(m)	2c\	in	2e\	in
2C/	do-	1A	do-	2A/	u-	2c/	v-
1BB	-(m)i-	.	.	2B\	-nu(m)	2d\	-n(u)m
!	!	!	!	!LO:SIC:v:t=custos c	!	!	!
.	.	2G/	-(m)i-	2d\	do-	2B/	do-
!	!	!	!	!LO:LB:g=original	!	!	!
=17	=17	=17	=17	=17	=17	=17	=17
1AA	-(num)	1A	-(num)	2c\	-mi-	2e\	-mi-
.	.	.	.	1A	-nu(m)	2e\	-nu(m)
1E	n(ost)-	1B	n(os-	.	.	1e	nos-
.	.	.	.	2G/	n(os-	.	.
=18	=18	=18	=18	=18	=18	=18	=18
2AA/	-ru(m)	1A	-tru)m	1c	-tru)m	2e\	-(trum)
!	!	!	!	!	!	!LO:SIC:v:t=custos d	!
2C/	Ie-	.	.	.	.	2c/	Ihe-
!	!	!	!	!	!	!LO:LB:g=original	!
2BB/	-ſum	2B\	Ih(e-	2r	.	2d\	-ſum
2GG/	Chr(i-	2B\	-su)m	2d\	Ih(e-	2.g\	Chri-
=19	=19	=19	=19	=19	=19	=19	=19
!	!	!LO:SIC:v:t=custos d	!	!	!	!	!
1AA	-stu)m	1c	Chri-	2c\	-su)m	.	.
.	.	.	.	.	.	4f\	.
.	.	.	.	2A/	Chr(i-	2f\	-ſtum
1GG	.	1d	-ſtu(m)	1B	-stu)m	2g\	.
.	.	.	.	.	.	2g\	fi-
!	!	!LO:LB:g=original	!	!	!	!	!
=20	=20	=20	=20	=20	=20	=20	=20
0r	.	1d	fi-	0A	.	2f\	-li-
.	.	.	.	.	.	2d\	-um
.	.	2c\	-li-	.	.	2e\	.
.	.	2A/	-u(m)	.	.	2.f\	de-
=21	=21	=21	=21	=21	=21	=21	=21
1r	.	1B	de-	0r	.	.	.
.	.	.	.	.	.	4e\	.
.	.	.	.	.	.	1e	.
2r	.	1A	-i	.	.	.	.
2D\	fi-	.	.	.	.	2d\	-i
=22	=22	=22	=22	=22	=22	=22	=22
2C/	-li-	2r	.	1r	.	1e	.
2AA/	-um	1A	u-	.	.	.	.
1BB	de-	.	.	2r	.	1d	.
.	.	2G/	-ni-	2d\	fi-	.	.
=23	=23	=23	=23	=23	=23	=23	=23
2AA/	-i	2A/	-ge-	2c\	-li-	1r	.
1A	u-	2F/	-ni-	2A/	-u(m)	.	.
.	.	1E	-tu(m)	1B	de-	2r	.
2G\	-ni-	.	.	.	.	1e	u-
=24	=24	=24	=24	=24	=24	=24	=24
2A\	-ge-	0r	.	2A/	-i	.	.
2F\	-ni-	.	.	1A	u-	2d\	-ni-
!LO:SIC:v:t=custos D	!	!	!	!	!	!	!
1E	-tum	.	.	.	.	2.e\	-ge-
.	.	.	.	2G/	-ni-	.	.
.	.	.	.	.	.	4d\	.
!LO:LB:g=original	!	!	!	!	!	!	!
=25	=25	=25	=25	=25	=25	=25	=25
1r	.	2r	.	2A/	-ge-	2c/	-ni-
.	.	1A	e(t)	2A/	-ni-	2d\	-tum
!	!	!	!	!	!	!LO:SIC:v:t=custos f	!
2r	.	.	.	1D	-tu(m)	2d\	.
!	!	!	!	!	!	!LO:LB:g=original	!
1D	Et	2A/	ex	.	.	1f	et
=26	=26	=26	=26	=26	=26	=26	=26
.	.	2F/	p(at)-	2r	.	.	.
2D/	ex	2D/	-re	1d	Et	2f\	ex
2GG/	p(at)-	1G	na-	.	.	2d\	p(at)-
2GG/	-re	.	.	2d\	ex	2d\	-re
=27	=27	=27	=27	=27	=27	=27	=27
!	!	!	!	!LO:SIC:v:t=custos G	!	!	!
1C	na-	1E	-tu(m)	2G/	pa-	1e	na-
!	!	!	!	!LO:LB:g=original	!	!	!
.	.	.	.	2G/	-tre	.	.
1AA	-tu(m)	2r	.	1c	na-	2e\	-tu(m)
.	.	1A	an-	.	.	2e\	an-
=28	=28	=28	=28	=28	=28	=28	=28
2r	.	.	.	1A	-tu(m)	2f\	-te
1D	an-	2A/	-te	.	.	1f	o(m)-
.	.	2F/	om-	2r	.	.	.
2D/	-te	2F/	-ni-	1d	an-	2d\	-ni-
=29	=29	=29	=29	=29	=29	=29	=29
!	!	!LO:SIC:v:t=custos G	!	!	!	!	!
2BB/	om-	1D	-a	.	.	2d\	-a
2BB/	-ni-	.	.	2d\	-te	2.g\	Se-
!	!	!LO:LB:g=original	!	!	!	!	!
1GG	-a	2.G/	Se-	2B\	om-	.	.
.	.	.	.	.	.	4f\	.
.	.	.	.	2B\	-ni-	4e\	.
.	.	4F/	.	.	.	4d\	.
=30	=30	=30	=30	=30	=30	=30	=30
2.C/	se-	4E/	.	2G/	-a	2.c/	-­-
.	.	4D/	.	.	.	.	.
.	.	2C/	.	2.c\	Se-	.	.
4BB/	.	.	.	.	.	4d\	.
4AA/	.	2.c\	.	.	.	2e\	.
4GG/	.	.	.	4B\	-cu-	.	.
1FF	.	.	.	4A/	.	2.f\	.
.	.	4B\	.	4G/	.	.	.
=31	=31	=31	=31	=31	=31	=31	=31
.	.	2A/	.	2A/	.	.	.
.	.	.	.	.	.	4e\	.
2GG/	-cu-	4G/	.	2D/	.	1d	-cu-
.	.	4F/	.	.	.	.	.
1AA	.	2E/	-cu-	2.A/	-la	.	.
.	.	2E/	-la	.	.	2c/	-la
.	.	.	.	4G/	.	.	.
=32	=32	=32	=32	=32	=32	=32	=32
!	!	!	!	!	!	!LO:SIC:v:t=custos f	!
0D	-la	2D/	.	2F/	.	0d	.
.	.	1A	de-	1f	De-	.	.
.	.	2A/	-um	2f\	-u(m)	.	.
!	!	!	!	!	!	!LO:LB:g=original	!
=33	=33	=33	=33	=33	=33	=33	=33
1r	.	2B\	de	2d\	de	1r	.
.	.	2c\	de-	2e\	de-	.	.
2r	.	2d\	-o	1f	-o	2r	.
2F\	lu-	2A/	lu-	.	.	2f\	lu-
=34	=34	=34	=34	=34	=34	=34	=34
!LO:SIC:v:t=custos F	!	!	!	!	!	!	!
2F\	-men	2A/	-men	0r	.	2f\	-me(n)
!LO:LB:g=original	!	!	!	!	!	!	!
2F\	de	2A/	de	.	.	2f\	de
2G\	lu-	2B\	lu-	.	.	2d\	lu-
2E\	-mi-	2c\	-mi-	.	.	2e\	-mi-
=35	=35	=35	=35	=35	=35	=35	=35
0D	-(n)e	1d	-(n)e	2r	.	1f	-(n)e
!	!	!	!	!LO:SIC:v:t=custos A	!	!	!
.	.	.	.	2F/	de-	.	.
!	!	!	!	!LO:LB:g=original	!	!	!
!	!	!LO:SIC:v:t=custos c	!	!	!	!	!
.	.	1d	de-	1A	-u(m)	2r	.
.	.	.	.	.	.	2f\	de-
!	!	!LO:LB:g=original	!	!	!	!	!
=36	=36	=36	=36	=36	=36	=36	=36
0r	.	2c\	-u(m)	1A	ve-	2e\	-u(m)
.	.	2d\	ve-	.	.	2f\	ve-
.	.	1A	-ru(m)	1F	-ru(m)	1d	-ru(m)
=37	=37	=37	=37	=37	=37	=37	=37
2r	.	2r	.	1r	.	2c/	de
2AA/	de	2A/	de	.	.	2c/	de-
2AA/	de-	2A/	de-	2r	.	2c/	-o
2E\	-o	2G/	-o	2G/	de	2B/	ve-
=38	=38	=38	=38	=38	=38	=38	=38
2.AA/	ve-	1A	ve-	2.c\	de-	2.e\	.
4BB/	.	.	.	4B\	-o	4d\	.
4C/	.	1E	-ro	2A/	.	2c/	.
4D/	.	.	.	.	.	.	.
2.E\	.	.	.	1G	.	4B/	.
.	.	.	.	.	.	4A/	-ro
=39	=39	=39	=39	=39	=39	=39	=39
.	.	0r	.	.	.	1B	.
4D/	.	.	.	.	.	.	.
1D	.	.	.	2F/	ve-	.	.
!	!	!	!	!	!	!LO:SIC:v:t=custos d	!
.	.	.	.	1E	-ro	0A	.
2C/	-ro	.	.	.	.	.	.
!	!	!	!	!	!	!LO:LB:g=original	!
=40	=40	=40	=40	=40	=40	=40	=40
2D,/	.	2r	.	1D	.	.	.
1D	ge-	1A	ge-	.	.	.	.
.	.	.	.	1r	.	1r	.
2C/	-ni-	2A/	-ni-	.	.	.	.
=41	=41	=41	=41	=41	=41	=41	=41
2D/	-tum	1A	-tu(m)	0r	.	0r	.
1F	non	.	.	.	.	.	.
.	.	1A	no(n)	.	.	.	.
4E\	.	.	.	.	.	.	.
4D/	.	.	.	.	.	.	.
=42	=42	=42	=42	=42	=42	=42	=42
!LO:SIC:v:t=custos D	!	!	!	!	!	!	!
2C/	.	0A	fa(c-	2r	.	0r	.
!LO:LB:g=original	!	!	!	!	!	!	!
2D/	fac-	.	.	1d	Con-	.	.
1AA	-tum	.	.	.	.	.	.
.	.	.	.	2c\	-sub-	.	.
=43	=43	=43	=43	=43	=43	=43	=43
0r	.	0A	-tu)m	2f\	-ſtan-	2r	.
.	.	.	.	2f\	-ci-	1d	Con-
*	*	*	*	*lig	*	*	*
.	.	.	.	1e	-a-	.	.
.	.	.	.	.	.	2c/	-ſub-
=44	=44	=44	=44	=44	=44	=44	=44
0r	.	0r	.	1d	.	2f\	.
.	.	.	.	.	.	2f\	-ſtan-
*	*	*	*	*Xlig	*	*	*
.	.	.	.	2c\	-lem	2e\	-ti-
.	.	.	.	1f	.	1d	-a-
=45	=45	=45	=45	=45	=45	=45	=45
0r	.	0r	.	.	.	.	.
.	.	.	.	4e\	pa-	4c/	-lem
.	.	.	.	4d\	.	4B/	.
.	.	.	.	2c\	.	2A/	.
.	.	.	.	1d	.	2f\	pa-
=46	=46	=46	=46	=46	=46	=46	=46
1r	.	2r	.	.	.	1e	-tri
!	!	!	!	!LO:SIC:v:t=custos d	!	!	!
.	.	1A	per	2c\	.	.	.
!	!	!	!	!LO:LB:g=original	!	!	!
2r	.	.	.	1d	-tri	2d\	.
1D	p(er)	2A/	que(m)	.	.	1A	per
=47	=47	=47	=47	=47	=47	=47	=47
.	.	2F/	o(m-	2r	.	.	.
2D/	que(m)	2F/	-n)i-	1d	per	2A/	que(m)
2BB/	o(m-	2D/	-a	.	.	2B/	o(m)-
2BB/	-n)i-	2D/	f(a)c-	2d\	que(m)	2B/	-ni-
=48	=48	=48	=48	=48	=48	=48	=48
2GG/	-a	1G	-ta	2B\	.	2d\	-a
2GG/	fac-	.	.	2B\	om-	2.g\	fa-
!	!	!LO:SIC:v:t=custos e	!	!	!	!	!
1C	-ta	2E/	ſunt	2G/	-ni-	.	.
.	.	.	.	.	.	4f\	-cta
!	!	!LO:LB:g=original	!	!	!	!	!
.	.	2.e\	fa-	2G/	-a	4e\	.
.	.	.	.	.	.	4d\	.
=49	=49	=49	=49	=49	=49	=49	=49
2AA/	ſu(n)t	.	.	2.A/	fa-	1c	sunt
.	.	4d\	.	.	.	.	.
1A	.	4c\	.	.	.	.	.
.	.	4B\	.	4B\	.	.	.
.	.	2A/	-cta	2c\	.	1r	.
4G\	fac-	1d	.	2d\	-cta	.	.
4F\	-ta	.	.	.	.	.	.
=50	=50	=50	=50	=50	=50	=50	=50
2E\	.	.	.	1e	.	2r	.
2E\	ſu(n)t	2c\	ſunt	.	.	1g	Qui
1D	.	1d	.	2A/	s(u)nt	.	.
!	!	!	!	!	!	!LO:SIC:v:t=custos e	!
.	.	.	.	1d	Qui	2f\	pro-
!	!	!	!	!	!	!LO:LB:g=original	!
=51	=51	=51	=51	=51	=51	=51	=51
1r	.	0r	.	.	.	1e	-pter
.	.	.	.	2c\	(pro)p-	.	.
2r	.	.	.	1B	-ter	1d	nos
1G	Qui	.	.	.	.	.	.
=52	=52	=52	=52	=52	=52	=52	=52
.	.	2r	.	1A	nos	2e\	ho-
2F\	(pro)-	1d	Qui	.	.	2f\	-(m)i-
1E	-pt(er)	.	.	2B\	ho-	1g	-nes
.	.	2c\	(pro)p-	2c\	-(m)i-	.	.
=53	=53	=53	=53	=53	=53	=53	=53
2D/	noſ	2B\	-t(er)	1d	-(n)es	2r	.
2D/	ho-	2A/	noſ	.	.	2d\	et
!LO:SIC:v:t=custos D	!	!	!	!	!	!	!
1AA	-mi-	1A	ho-	2r	.	2e\	prop-
.	.	.	.	2c\	et	2e\	-t(er)
!LO:LB:g=original	!	!	!	!	!	!	!
=54	=54	=54	=54	=54	=54	=54	=54
2D/	-neſ	1F	-(m)i-	2d\	(pro)p-	1f	n(os-
!	!	!	!	!LO:SIC:v:t=custos e	!	!	!
2D/	e(t)	.	.	2d\	-ter	.	.
!	!	!	!	!LO:LB:g=original	!	!	!
2C/	prop-	2E/	-(n)es	1e	noſ-	1c	-t)ra(m)
2AA/	-t(er)	1A	et	.	.	.	.
=55	=55	=55	=55	=55	=55	=55	=55
1BB	n(os-	.	.	1d	-tra(m)	2r	.
.	.	2G/	(pro)p-	.	.	2g\	et
2AA/	-t)ra(m)	2A/	-t(er)	2c\	.	2e\	prop-
2AA/	ſa-	2c\	n(os-	2A/	.	1e	-ter
=56	=56	=56	=56	=56	=56	=56	=56
2E\	-lu-	2B\	-t)ra(m)	2G/	Sa-	.	.
2F\	-tem	2A/	sa-	1A	-lu-	2d\	n(os-
1E	.	1B	-lu-	.	.	2e\	-t)ra(m)
.	.	.	.	2G/	-tem	2e\	sa-
=57	=57	=57	=57	=57	=57	=57	=57
0AA	de-	0A	-te(m)	1A	.	1c	-lu-
.	.	.	.	1r	.	2c/	-te(m)
.	.	.	.	.	.	2e\	de-
=58	=58	=58	=58	=58	=58	=58	=58
1AA	-ſcen-	0r	.	1r	.	1.a	-ſcen-
1.D	.	.	.	1A	de-	.	.
.	.	.	.	.	.	2g\	-d(it)
=59	=59	=59	=59	=59	=59	=59	=59
!	!	!	!	!	!	!LO:SIC:v:t=custos e	!
.	.	1A	de-	1.d	-ſcen-	2f\	de
2C/	-dit	.	.	.	.	2e\	c(ae)-
!	!	!LO:SIC:v:t=custos c	!	!	!	!	!
2BB/	de	0B	-sce(n)-	.	.	0d	-lis
2AA/	c(ae)-	.	.	2c\	-dit	.	.
!	!	!LO:LB:g=original	!	!	!	!	!
=60	=60	=60	=60	=60	=60	=60	=60
1GG	-lis	.	.	2B\	de	.	.
.	.	.	.	2A/	.	.	.
1r	.	2c\	-dit	2G/	c(ae)-	1r	.
.	.	1d	de	2F/	.	.	.
=61	=61	=61	=61	=61	=61	=61	=61
0r	.	.	.	1E	-lis	2r	.
.	.	2c\	c(ae)-	.	.	2g\	Et
.	.	1d	-lis	2D/	.	2f\	in-
.	.	.	.	2d\	Et	2d\	-car-
=62	=62	=62	=62	=62	=62	=62	=62
0r	.	1r	.	2c\	in-	2e\	-na-
.	.	.	.	2A/	-car-	2c/	-tus
.	.	2r	.	1B	-na-	2d\	eſt
*	*	*	*	*	*	*	*ij
.	.	2d\	Et	.	.	1f	in-
=63	=63	=63	=63	=63	=63	=63	=63
1r	.	2c\	in-	2A/	-t(us)	.	.
.	.	2A/	-car-	2d\	Et	2d\	-car-
!	!	!	!	!LO:SIC:v:t=custos e	!	!	!
2r	.	1B	-na-	2B\	in-	1e	-na-
!	!	!	!	!LO:LB:g=original	!	!	!
2G\	Et	.	.	2.e\	-car-	.	.
=64	=64	=64	=64	=64	=64	=64	=64
2F\	in-	2A/	-t(us)	.	.	1f	.
.	.	.	.	4d\	-na-	.	.
2D/	-car-	1A	e(st)	1d	-t(us)	.	.
1E	-na-	.	.	.	.	1g	-tus
.	.	2G/	de	2c\	e(st)	.	.
=65	=65	=65	=65	=65	=65	=65	=65
!LO:SIC:v:t=custos D	!	!	!	!	!	!	!
2D/	-t(us)	2A/	.	1d	de	2f\	eſt
*	*	*	*	*	*	*	*Xij
!LO:LB:g=original	!	!	!	!	!	!	!
1D	e(st)	2F/	Spi-	.	.	2d\	de
.	.	1E	-ri-	2A/	Spi-	1e	Spi-
2C/	de	.	.	1A	-ri-	.	.
=66	=66	=66	=66	=66	=66	=66	=66
2D/	Spi-	2F/	-tu	.	.	2A/	-ri-
2BB/	-ri-	2D/	.	2G/	-tu	1d	-tu
2AA/	-tu	1E	S(an)-	1A	.	.	.
2AA/	S(an)-	.	.	.	.	2c/	San-
=67	=67	=67	=67	=67	=67	=67	=67
1D	-cto	1D	-cto	4F/	San-	2d\	.
.	.	.	.	4G/	.	.	.
!	!	!	!	!	!	!LO:SIC:v:t=custos e	!
.	.	.	.	4A\	.	2f\	-cto
.	.	.	.	4B\	.	.	.
!	!	!	!	!	!	!LO:LB:g=original	!
1r	.	1r	.	2c\	.	2e\	Ma-
.	.	.	.	1d	.	2d\	-ri-
=68	=68	=68	=68	=68	=68	=68	=68
0r	.	2r	.	.	.	1e	-a
.	.	2A/	Ex	2c\	-cto	.	.
.	.	2B\	Ma-	2d\	.	2d\	ex
.	.	1d	-ri-	1A	Ex	2f\	.
=69	=69	=69	=69	=69	=69	=69	=69
2r	.	.	.	.	.	1e	vir-
2AA/	Ex	2c\	-a	2A/	.	.	.
!	!	!LO:SIC:v:t=custos f	!	!	!	!	!
1D	Ma-	1d	uir-	1A	Ma-	1f	-gi-
!	!	!LO:LB:g=original	!	!	!	!	!
=70	=70	=70	=70	=70	=70	=70	=70
1D	-ri-	0f	-gi-	2F/	-ri-	0d	-ne
.	.	.	.	4D/	-a	.	.
.	.	.	.	4E/	vir-	.	.
1D	-a	.	.	4F/	.	.	.
.	.	.	.	4G/	.	.	.
.	.	.	.	4A/	.	.	.
.	.	.	.	4B\	.	.	.
=71	=71	=71	=71	=71	=71	=71	=71
!	!	!	!	!LO:SIC:v:t=custos d	!	!	!
1AA	v(ir)-	1e	-ne	2c\	.	1r	.
!	!	!	!	!LO:LB:g=original	!	!	!
.	.	.	.	1d	-gi-	.	.
1AA	-gi-	1e	e(t)	.	.	1e	et
.	.	.	.	2c\	-ne	.	.
=72	=72	=72	=72	=72	=72	=72	=72
1D	-ne	1d	.	2d\	e(t)	00f	ho-
.	.	.	.	2A/	ho-	.	.
1D	e(t)	1d	ho-	1A	.	.	.
=73	=73	=73	=73	=73	=73	=73	=73
0D	ho-	0d	-mo	2F/	-mo	.	.
.	.	.	.	2.D/	fa-	.	.
.	.	.	.	4E/	.	.	.
.	.	.	.	4F/	.	.	.
.	.	.	.	4G/	.	.	.
=74	=74	=74	=74	=74	=74	=74	=74
0AA	-mo	0c	.	0A	-ctus	0e	-mo
=75	=75	=75	=75	=75	=75	=75	=75
1.C	fac-	1.c	fac-	1G	.	1.e	fac-
.	.	.	.	4E/	.	.	.
.	.	.	.	4F/	.	.	.
2C/	-tus	2c\	-tuſ	4G/	eſt	2e\	-t(us)
.	.	.	.	4A/	.	.	.
=76	=76	=76	=76	=76	=76	=76	=76
0GG	e(st)	1B	e(st)	2B\	.	1d	e(st)
.	.	.	.	2G/	Cru-	.	.
.	.	2r	.	1.B	-ci-	1d	.
.	.	1G	Cru-	.	.	.	.
=77	=77	=77	=77	=77	=77	=77	=77
2r	.	.	.	.	.	2B/	Cru-
2C/	Cru-	2E/	-ci-	1c	-fi-	2e\	-ci-
!LO:SIC:v:t=custos E	!	!	!	!	!	!	!
1AA	-ci-	1A	-fi-	.	.	2c/	-fi-
.	.	.	.	2A/	-xus	1e	-xus
!LO:LB:g=original	!	!	!	!	!	!	!
=78	=78	=78	=78	=78	=78	=78	=78
1E	-fi-	1G	-xus	2B\	e-	.	.
.	.	.	.	2B\	-ci-	2e\	e-
!	!	!	!	!LO:SIC:v:t=custos A	!	!	!
2AA/	-x(us)	2.c\	e-	2A/	-am	1e	-ci-
!	!	!	!	!LO:LB:g=original	!	!	!
2AA/	e-	.	.	4A/	pro	.	.
.	.	4B\	-ci-	4B\	.	.	.
=79	=79	=79	=79	=79	=79	=79	=79
!	!	!	!	!	!	!LO:SIC:v:t=custos f	!
2AA/	-ti-	2A/	-am	4c\	.	1e	-am
.	.	.	.	4d\	.	.	.
2C/	-a(m)	2G/	.	2.e\	.	.	.
!	!	!	!	!	!	!LO:LB:g=original	!
2D/	pro	2F/	pro	.	.	2f\	pro
.	.	.	.	4d\	.	.	.
2BB/	no-	2D/	.	1d	no-	2g\	no-
=80	=80	=80	=80	=80	=80	=80	=80
1AA	-bis	1E	no-	.	.	1e	-bis
.	.	.	.	2c\	-bis	.	.
2r	.	1D	-bis	1d	Sub	1f	Sub
2D/	Sub	.	.	.	.	.	.
=81	=81	=81	=81	=81	=81	=81	=81
2AA/	.	1E	s(u)b	1c	.	2.e\	pon-
2C/	pon-	.	.	.	.	.	.
.	.	.	.	.	.	4e\	-ti-
4GG/	-ti-	2G/	po(n)-	2.B\	pon-	1.d	-o
4AA/	-o	.	.	.	.	.	.
4BB/	.	2G/	-ti-	.	.	.	.
4C/	.	.	.	4B\	-ti-	.	.
=82	=82	=82	=82	=82	=82	=82	=82
!	!	!LO:SIC:v:t=custos D	!	!	!	!	!
4D/	.	2F/	-o	1A	-o	.	.
4E/	pi-	.	.	.	.	.	.
!	!	!LO:LB:g=original	!	!	!	!	!
2.F\	.	2.D/	pi-	.	.	2d\	Pi-
.	.	.	.	2r	.	1d	-la-
4E\	-la-	4E/	.	.	.	.	.
2D/	.	2F/	.	2B\	pi-	.	.
=83	=83	=83	=83	=83	=83	=83	=83
*	*	*	*	*lig	*	*	*
1C	-to	2G/	-la-	1c	-la-	1e	-to
.	.	1A	-to	.	.	.	.
1BB	.	.	.	1d	.	1r	.
.	.	2G/	paſ-	.	.	.	.
*	*	*	*	*Xlig	*	*	*
=84	=84	=84	=84	=84	=84	=84	=84
2AA/	paſ	2A/	.	2c\	-to	2r	.
!LO:SIC:v:t=custos AA	!	!	!	!	!	!	!
1AA	paſ-	1A	-ſus	1c	paſ-	1e	paſ-
!LO:LB:g=original	!	!	!	!	!	!	!
2AA/	-sus	2A/	et	2c\	-sus	2e\	-ſus
=85	=85	=85	=85	=85	=85	=85	=85
2D/	e(t)	2F/	se-	1d	et	2f\	.
2D/	Se-	2F/	-pul-	.	.	1d	et
1GG	-p(ul)-	1D	-t(us)	2B\	se	.	.
.	.	.	.	2B\	p(u)l-	2.g\	ſe-
=86	=86	=86	=86	=86	=86	=86	=86
0C	-tus	0E	eſt	0c	-t(us)	.	.
.	.	.	.	.	.	4f\	-pul-
.	.	.	.	.	.	4e\	-tus
.	.	.	.	.	.	4d\	.
.	.	.	.	.	.	2e\	.
.	.	.	.	.	.	2c/	eſt
=87	=87	=87	=87	=87	=87	=87	=87
!	!	!	!	!LO:SIC:v:t=custos d	!	!	!
!	!	!	!	!LO:TX:t=P:problem= fermata u góry i u dołu	!	!LO:TX:t=P:problem= fermata u góry i u dołu	!
0GG	e(st)	0D	.	0B;	eſt	0d;	.
!	!	!	!	!LO:LB:g=original	!	!	!
=88||	=88||	=88||	=88||	=88||	=88||	=88||	=88||
0r	.	0r	.	1d	Et	0r	.
.	.	.	.	2c\	re-	.	.
.	.	.	.	2A\	-ſur-	.	.
=89	=89	=89	=89	=89	=89	=89	=89
1r	.	0r	.	1B	 re-	1g	Et
!	!	!	!	!	!	!LO:SIC:v:t=custos d	!
1D	Et	.	.	2A/	-xit	2f\	re-
!	!	!	!	!	!	!LO:LB:g=original	!
.	.	.	.	2.B\	.	2d\	-Sur-
=90	=90	=90	=90	=90	=90	=90	=90
2C/	re-	1r	.	.	.	1e	-re-
.	.	.	.	4A/	.	.	.
2AA/	-ſur-	.	.	1A	.	.	.
1BB	-re-	1d	Et	.	.	1d	-xit
.	.	.	.	2G/	.	.	.
=91	=91	=91	=91	=91	=91	=91	=91
2AA/	-xit	2c\	re-	2A/	.	2r	.
2AA/	re-	2A/	-ſur-	2c\	re-	2e\	re-
2E\	-ſur-	1B	-re-	2B\	-ſur-	2e\	-sur-
2E\	-re-	.	.	2e\	-re-	2e\	-re-
=92	=92	=92	=92	=92	=92	=92	=92
1AA	-xit	1A	-xit	1c	-xit	2e\	-xit
.	.	.	.	.	.	1e	ter-
1AA	ter-	1A	ter-	1c	ter-	.	.
.	.	.	.	.	.	2e\	-ti-
=93	=93	=93	=93	=93	=93	=93	=93
2D/	-ci-	2F/	-ri-	2A/	-ti-	2f\	-a
2GG/	-a	2D/	-a	2B\	-a	2g\	.
!	!	!LO:SIC:v:t=custos D	!	!	!	!	!
1C	di-	1E	di-	1c	di-	2.e\	di-
.	.	.	.	.	.	4f\	-e
!	!	!LO:LB:g=original	!	!	!	!	!
=94	=94	=94	=94	=94	=94	=94	=94
2GG/	-e	2D/	-e	2B\	-e	1g	.
2E\	Se-	2G/	se-	2B\	ſe-	.	.
2.C/	-cun-	2.E/	-cun-	1c	-cun-	1r	.
!LO:SIC:v:t=custos E	!	!	!	!	!	!	!
4D/	.	4F/	.	.	.	.	.
!LO:LB:g=original	!	!	!	!	!	!	!
=95	=95	=95	=95	=95	=95	=95	=95
!	!	!	!	!LO:SIC:v:t=custos A	!	!	!
2E\	-du(m)	2G/	.	2B\	-du(m)	0r	.
!	!	!	!	!LO:LB:g=original	!	!	!
2C/	Scri-	1A	.	2A/	Scri-	.	.
2D/	.	.	.	1B	-ptu-	.	.
2E\	-ptu-	2G/	-dum	.	.	.	.
=96	=96	=96	=96	=96	=96	=96	=96
1AA	-ras	2A/	.	1A	-raſ	2r	.
.	.	2c\	Scri-	.	.	2e\	se-
1r	.	2.A/	.	1r	.	1f	-cun-
.	.	4B\	-ptu-	.	.	.	.
=97	=97	=97	=97	=97	=97	=97	=97
1r	.	2c\	.	0r	.	2e\	-dum
.	.	1d	-raſ	.	.	2d\	Scri-
2r	.	.	.	.	.	1e	-ptu-
2AA/	et	2c\	.	.	.	.	.
=98	=98	=98	=98	=98	=98	=98	=98
1D	a-	2d\	et	0r	.	0d	-ras
.	.	2A/	a-	.	.	.	.
1D	-ſcen-	2B\	-ſcen-	.	.	.	.
.	.	1d	-dit	.	.	.	.
=99	=99	=99	=99	=99	=99	=99	=99
1AA	-dit	.	.	2r	.	2r	.
!	!	!	!	!	!	!LO:SIC:v:t=custos f	!
.	.	2c\	.	2A/	et	2e\	et
!	!	!	!	!	!	!LO:LB:g=original	!
0D	in	1d	.	2A/	a-	2f\	a-
.	.	.	.	2A/	-ſcen-	2f\	-ſcen-
=100	=100	=100	=100	=100	=100	=100	=100
.	.	0f	in	2F/	-dit	0d	-dit
.	.	.	.	4D/	in	.	.
.	.	.	.	4E/	.	.	.
2.D/	c(ae)-	.	.	4F/	.	.	.
.	.	.	.	4G/	.	.	.
.	.	.	.	4A\	.	.	.
4C/	.	.	.	4B\	c(ae)-	.	.
=101	=101	=101	=101	=101	=101	=101	=101
2AA/	.	2e\	.	2c\	-lum	1r	.
!	!	!LO:SIC:v:t=custos e	!	!	!	!	!
2BB-X/	.	2d\	.	1d	.	.	.
!	!	!LO:LB:g=original	!	!	!	!	!
1AA	-lum	1e	c(ae)-	.	.	2r	.
.	.	.	.	2c\	.	2e\	in
=102	=102	=102	=102	=102	=102	=102	=102
1D	.	2d\	-lu(m)	2d\	.	1f	c(ae)-
.	.	2d\	ſe-	2A/	ſe-	.	.
2r	.	2c\	-det	2A/	-der	2e\	-lu(m)
2G\	se-	2B\	ad	2B\	ad	2d\	Se-
=103	=103	=103	=103	=103	=103	=103	=103
2F\	-det	1c	dex-	2A/	dex-	2f\	-det
2E\	ad	.	.	2G/	-te-	2g\	ad
1F	dex-	2A/	-t(e-	1c	-ra(m)	2.f\	dex-
.	.	2A/	-r)am	.	.	.	.
.	.	.	.	.	.	4f\	-te-
=104	=104	=104	=104	=104	=104	=104	=104
2D/	-te-	1A	p(at)-	2r	.	2f\	-ra(m)
!LO:SIC:v:t=custos D	!	!	!	!LO:SIC:v:t=custos A	!	!	!
2C/	-ra(m)	.	.	2c\	pa-	2e\	.
!LO:LB:g=original	!	!	!	!LO:LB:g=original	!	!	!
2D/	pa-	2F/	-ris	2A/	-triſ	2f\	pa-
2BB-X/	-tris	2G/	e(t)	2B-X/	e(t)	2d\	-tris
=105	=105	=105	=105	=105	=105	=105	=105
2C/	e(t)	2E/	i-	2G/	i-	2e\	et
2AA/	i-	2F/	-te-	2A/	-te	2c/	i-
2BB/	-te-	2D/	-rum	2F/	rum	2d/	-te-
2GG/	-ru(m)	4G/	ven-	2B\	ven-	2d/	-rum
.	.	4A/	.	.	.	.	.
=106	=106	=106	=106	=106	=106	=106	=106
2.GG/	ven-	4B-X\	.	2B\	 tu-	4G/	ven-
.	.	4c\	.	.	.	4A/	.
.	.	1d	.	2G/	-r(us)	4B-X/	-tu-
4AA/	.	.	.	.	.	4c/	.
!	!	!	!	!	!	!LO:SIC:v:t=custos d	!
4BB/	.	.	.	1G	e(st)	2d\	-rus
4C/	.	.	.	.	.	.	.
!	!	!	!	!	!	!LO:LB:g=original	!
4D/	.	4c\	.	.	.	2d/	.
4E\	.	4B-\	.	.	.	.	.
=107	=107	=107	=107	=107	=107	=107	=107
2F\	-tu-	2A/	-tu-	1r	.	0.d	eſt
1G	-rus	2G/	-ruſ	.	.	.	.
!	!	!LO:SIC:v:t=custos G	!	!	!	!	!
.	.	1A	.	2r	.	.	.
2F\	.	.	.	2A/	cum	.	.
!	!	!LO:LB:g=original	!	!	!	!	!
=108	=108	=108	=108	=108	=108	=108	=108
2G\	e(st)	1G	eſt	2.B/	glo-	.	.
2GG/	cu(m)	.	.	.	.	.	.
!	!	!	!	!LO:TX:t=P:problem=# below	!	!	!
.	.	.	.	4B#X/	-ri-	.	.
2C/	glo-	1E	cu(m)	1c	-a	2r	.
2AA/	.	.	.	.	.	2A/	cu(m)
=109	=109	=109	=109	=109	=109	=109	=109
2GG/	-ri-	2G/	gl(o-	1B	iu-	2.d\	glo-
2GG/	-a	2G/	-ri)-	.	.	.	.
.	.	.	.	.	.	4d\	-ri-
2D/	iu-	1F	-a	2A/	-di-	1d	-a,
2.F\	-di-	.	.	2.A/	-ca-	.	.
=110	=110	=110	=110	=110	=110	=110	=110
*	*	*lig	*	*	*	*	*
.	-ca-	1A	iu-	.	.	2d\	iu-
4E\	.	.	.	4G/	.	.	.
4D\	.	.	.	4F/	.	2d\	-di-
!LO:SIC:v:t=custos D	!	!	!	!	!	!	!
4C\	.	.	.	4E/	.	.	.
!LO:LB:g=original	!	!	!	!	!	!	!
1D	-ca-	1F	.	4F/	.	1d	-ca-
.	.	.	.	4G/	.	.	.
.	.	.	.	4A/	.	.	.
!	!	!	!	!LO:SIC:v:t=custos c	!	!	!
.	.	.	.	4B\	.	.	.
*	*	*Xlig	*	*	*	*	*
!	!	!	!	!LO:LB:g=original	!	!	!
=111	=111	=111	=111	=111	=111	=111	=111
1AA	-re	2E/	-di-	1c	-re	2c/	-re
.	.	2E/	-ca-	.	.	2e\	vi-
2r	.	2D/	-re	2d\	vi-	2f\	-uos
2D/	vi-	2D/	vi-	2A/	-uos	2f\	et
=112	=112	=112	=112	=112	=112	=112	=112
2AA/	-uos	1E	-uos	2c\	et	2e\	mor-
2C/	e(t)	.	.	4G/	.	2e\	-tu-
.	.	.	.	4A/	.	.	.
4GG/	.	1G	e(t)	4B\	mor-	1d	-os
4AA/	mor-	.	.	4c\	-tu-	.	.
4BB/	.	.	.	1d	-oſ	.	.
4C/	.	.	.	.	.	.	.
=113	=113	=113	=113	=113	=113	=113	=113
4D/	-­-	4F/	.	.	.	0r	.
4E/	.	4G/	.	.	.	.	.
1F	.	4A\	.	2c\	.	.	.
.	.	4B\	mor-	.	.	.	.
.	.	2c\	-tu-	1A	.	.	.
4E/	.	1d	-oſ	.	.	.	.
4D/	-tu-	.	.	.	.	.	.
=114	=114	=114	=114	=114	=114	=114	=114
2E\	-oſ	.	.	1r	.	2r	.
2E\	.	2c\	.	.	.	1g	Cu-
1D	.	1d	.	2r	.	.	.
.	.	.	.	1d	Cu-	2f\	-ius
=115	=115	=115	=115	=115	=115	=115	=115
1r	.	0r	.	.	.	1e	re-
.	.	.	.	2c\	-ius	.	.
2r	.	.	.	1B	re-	1d	-gni
1G	Cu-	.	.	.	.	.	.
=116	=116	=116	=116	=116	=116	=116	=116
!	!	!	!	!	!	!LO:SIC:v:t=custos f	!
.	.	2r	.	1A	-gni	2e\	non
!	!	!	!	!	!	!LO:LB:g=original	!
2F\	-ius	1d	Cu-	.	.	2f\	e-
1E	re-	.	.	2B\	no(n)	1g	-rit
.	.	2c\	-ius	2c\	e-	.	.
=117	=117	=117	=117	=117	=117	=117	=117
2D/	.	2B\	re-	1d	-rit	2r	.
!	!	!LO:SIC:v:t=custos A	!	!	!	!	!
2D/	-gni	2A/	-gni	.	.	1d	non
!	!	!LO:LB:g=original	!	!	!	!	!
1AA	no(n)	1A	non	2r	.	.	.
.	.	.	.	1A	non	2c/	e-
=118	=118	=118	=118	=118	=118	=118	=118
2D/	e-	1F	e-	.	.	1d	-rit
!LO:SIC:v:t=custos C	!	!	!	!	!	!	!
2D/	-rit	.	.	2B\	e-	.	.
!LO:LB:g=original	!	!	!	!	!	!	!
2C/	.	2E/	-rit	2c\	-rit	2.e\	fi-
!	!	!	!	!LO:SIC:v:t=custos B	!	!	!
2AA/	fi-	1A	fi-	2c\	fi-	.	.
.	.	.	.	.	.	4c/	-nis
!	!	!	!	!LO:LB:g=original	!	!	!
=119	=119	=119	=119	=119	=119	=119	=119
1BB	-nis	.	.	1B	-niſ	2.d\	.
.	.	2G/	.	.	.	.	.
.	.	.	.	.	.	8c/	.
.	.	.	.	.	.	8B/	.
0AA	.	2A/	.	1r	.	2c/	.
.	.	2F/	.	.	.	1d	.
=120	=120	=120	=120	=120	=120	=120	=120
.	.	1E	-niſ	0r	.	.	.
.	.	.	.	.	.	2c/	.
*	*	*lig	*	*	*	*	*
2r	.	1D	.	.	.	2d\	.
2D/	Et	.	.	.	.	2f\	Et
=121	=121	=121	=121	=121	=121	=121	=121
2C/	in	1E	.	1r	.	2e\	.
2AA/	ſpi-	.	.	.	.	2c/	in
*	*	*Xlig	*	*	*	*	*
1BB	-ri-	1D	Et	2r	.	2.d\	Spi-
.	.	.	.	2d\	Et	.	.
.	.	.	.	.	.	4e\	-ri-
=122	=122	=122	=122	=122	=122	=122	=122
1AA	-tu(m)	1r	.	2c\	in	2f\	-tum
.	.	.	.	2A/	Spi-	2e\	.
1r	.	2r	.	1B	-ri-	2d\	.
!	!	!	!	!	!	!LO:SIC:v:t=custos f	!
.	.	2d\	in	.	.	1g	.
!	!	!	!	!	!	!LO:LB:g=original	!
=123	=123	=123	=123	=123	=123	=123	=123
1r	.	2c\	Spi-	2A/	-tu(m)	.	.
.	.	2A/	-ri-	2c\	Sanc-	2f\	tum
2r	.	1B	-tu(m)	2d\	-tum	1g	.
2G\	Et	.	.	2.e\	.	.	.
=124	=124	=124	=124	=124	=124	=124	=124
2F\	in	2A/	.	.	.	1r	.
.	.	.	.	4d\	do-	.	.
2D/	Spi-	1A	S(an-	1d	-mi-	.	.
1E	-ri-	.	.	.	.	2r	.
.	.	2G/	-ct(u)m	2c\	-nu(m)	2g\	Sanc-
=125	=125	=125	=125	=125	=125	=125	=125
2D/	-(tum)	2A/	do-	2d\	.	2f\	-tum
1D	S(an)c-	2F/	-mi-	2A/	et	2d\	do-
.	.	2E/	-(num)	2B\	vi-	1e	-mi-
2C/	-t(u)m	1A	et	2c\	-ui-	.	.
=126	=126	=126	=126	=126	=126	=126	=126
2D/	do-	.	.	2A/	.	2d\	-(num)
2BB/	-mi-	2G/	vi-	2B/	.	1d	et
2AA/	-(num)	2A/	-ui-	2c\	.	.	.
2AA/	et	2c\	-fi-	2A/	.	2c/	vi-
=127	=127	=127	=127	=127	=127	=127	=127
!	!	!	!	!LO:SIC:v:t=custos A	!	!	!
2E\	vi-	2B\	.	2G/	.	2e\	-vi-
!	!	!LO:SIC:v:t=custos A	!	!	!	!	!
!	!	!LO:LB:g=original	!	!LO:LB:g=original	!	!	!
2F\	-ui-	2A/	.	1A	-fi-	2d\	-fi-
2D/	-fi-	1B	-can-	.	.	2f\	-can-
!LO:SIC:v:t=custos AA	!	!	!	!	!	!	!
2E\	-can-	.	.	2G/	-can-	4e\	-tem
.	.	.	.	.	.	4d\	.
!LO:LB:g=original	!	!	!	!	!	!	!
=128	=128	=128	=128	=128	=128	=128	=128
1AA	-tem	1A	-tem	1A	-tem	2c/	.
.	.	.	.	.	.	2e\	qui
1r	.	1r	.	2r	.	1g	.
.	.	.	.	2B\	qui	.	.
=129	=129	=129	=129	=129	=129	=129	=129
0r	.	0r	.	1d	ex	2f\	ex
.	.	.	.	.	.	2d\	pa-
.	.	.	.	2c\	pa-	2e\	-tre
.	.	.	.	2A/	-tre	2f\	fi-
=130	=130	=130	=130	=130	=130	=130	=130
!	!	!	!	!	!	!LO:SIC:v:t=custos e	!
0r	.	0r	.	2B\	fi-	2g\	-li-
!	!	!	!	!	!	!LO:LB:g=original	!
.	.	.	.	2c\	-li-	2e\	-o-
.	.	.	.	2d\	-o-	2d\	-q(ue)
.	.	.	.	2B\	-q(ue)	2g\	.
=131	=131	=131	=131	=131	=131	=131	=131
0r	.	0r	.	2A/	pro-	2.f\	pro-
.	.	.	.	1d	-ce-	.	.
.	.	.	.	.	.	8e\	-ce-
.	.	.	.	.	.	8d\	-dit
.	.	.	.	.	.	1e	.
.	.	.	.	2c\	-dit	.	.
=132	=132	=132	=132	=132	=132	=132	=132
1D	qui	2r	.	1d	.	2d\	.
.	.	2d\	Qui	.	.	2f\	qui
2AA/	cu(m)	1c	cu(m)	1r	.	2e\	cu(m)
2C/	p(at)-	.	.	.	.	2e\	pa-
=133	=133	=133	=133	=133	=133	=133	=133
1GG	-re	1B	.	2r	.	2d\	-tre
.	.	.	.	2d\	qui	2f\	et
1r	.	2A/	p(at)-	1c	cum	2f\	fi-
.	.	1A	-re	.	.	2e\	-li-
=134	=134	=134	=134	=134	=134	=134	=134
2r	.	.	.	1B	p(a-	1e	-o
2G\	e(t)	2G/	et	.	.	.	.
2F\	fi-	2A/	fi-	2A/	-t)re	2d\	Si-
!	!	!	!	!LO:TX:t=P:problem=poprawka wysokości	!	!	!
2E\	-li-	2B\	-lio	2G/	et	1e	-mul
=135	=135	=135	=135	=135	=135	=135	=135
2AA/	-o	2c\	Si-	2A/	fi-	.	.
!	!	!	!	!LO:SIC:v:t=custos E	!	!	!
2D/	Si-	1d	-m(u)l	2F/	-li-	2d\	a-
!	!	!	!	!LO:LB:g=original	!	!	!
1AA	-mul	.	.	2E/	-o	1e	-do-
.	.	2c\	a-	1A	ſi-	.	.
=136	=136	=136	=136	=136	=136	=136	=136
!	!	!	!	!	!	!LO:SIC:v:t=custos g	!
2D/	a-	2d\	-do-	.	.	2f\	.
!	!	!	!	!	!	!LO:LB:g=original	!
2E\	-do-	2B\	-ra-	2G/	-mul	2g\	-ra-
*	*	*	*	*	*	*lig	*
2F\	-ra-	1A	-tur	2c\	a-	1f	-tur
2D/	-tur	.	.	2d\	-do-	.	.
=137	=137	=137	=137	=137	=137	=137	=137
2E\	.	1G	.	2B\	-ra-	1e	.
2C/	e(t)	.	.	2c\	-tur:	.	.
*	*	*	*	*	*	*Xlig	*
2G\	.	2r	.	2B/	ra-	1d	.
2D/	con-	2d\	et	2A/	-tur	.	.
=138	=138	=138	=138	=138	=138	=138	=138
2C/	-glo-	2e\	con-	2r	.	2r	.
2D/	-ri-	2f\	-glo-	2d\	e(t)	2A/	et
2GG/	-fi-	2d\	-ri-	2B\	con-	2B/	con-
!LO:SIC:v:t=custos D	!	!	!	!	!	!	!
2AA/	.	2c\	-fi-	2A/	-glo-	2c/	-glo-
!LO:LB:g=original	!	!	!	!	!	!	!
=139	=139	=139	=139	=139	=139	=139	=139
*lig	*	*lig	*	*	*	*	*
1D	-ca-	1f	-ca-	2A/	-ri-	2A/	-ri-
.	.	.	.	2A/	-fi-	1d	-fi-
!	!	!LO:SIC:v:t=custos d	!	!	!	!	!
1AA	.	1e	.	1A	-ca-	.	.
.	.	.	.	.	.	2c/	-ca-
*Xlig	*	*Xlig	*	*	*	*	*
!	!	!LO:LB:g=original	!	!	!	!	!
=140	=140	=140	=140	=140	=140	=140	=140
1D	-tur	1d	-tur	2A/	-tur	2d\	-tur
.	.	.	.	1d	Qui	2f\	.
1r	.	1r	.	.	.	1e	.
.	.	.	.	2c\	lo-	.	.
=141	=141	=141	=141	=141	=141	=141	=141
0r	.	1r	.	2B\	-cu-	2r	.
.	.	.	.	2B\	-t(us)	1g	qui
.	.	2r	.	1A	e(st)	.	.
.	.	1d	Qui	.	.	2f\	lo-
=142	=142	=142	=142	=142	=142	=142	=142
0r	.	.	.	2r	.	2e\	-cu-
!	!	!	!	!LO:SIC:v:t=custos G	!	!	!
.	.	2c\	lo-	1A	per	2e\	-tus
.	.	2B\	-cu-	.	.	2d\	eſt
!	!	!	!	!LO:LB:g=original	!	!	!
.	.	2B\	-t(us)	2G/	pro-	1e	p(er)
=143	=143	=143	=143	=143	=143	=143	=143
0r	.	2A/	e(st)	1F	-phe-	.	.
.	.	1A	p(er)	.	.	2d\	pro-
.	.	.	.	1E	-tas.	2c/	-phe-
.	.	2G/	pro-	.	.	2B/	-tas
=144	=144	=144	=144	=144	=144	=144	=144
1D	Et	1F	-phe-	2A/	et	1d	et
.	.	.	.	2B\	u-	.	.
!	!	!	!	!	!	!LO:SIC:v:t=custos c	!
2C/	u-	2E/	-tas	2c\	-nam	2e\	u-
!	!	!	!	!	!	!LO:LB:g=original	!
2C/	-na(m)	1E	et	2c\	.	2c/	-na(m)
=145	=145	=145	=145	=145	=145	=145	=145
1D	S(an)-	.	.	2A/	Sanc-	1f	sanc-
.	.	2D/	u-	2d\	-tam	.	.
1AA	-cta(m)	2E/	-na(m)	2.c\	Ca-	2e\	-ta(m)
.	.	2F/	ſ(an)-	.	.	2e\	Ca-
.	.	.	.	8B\	-tho-	.	.
.	.	.	.	8A\	-li-	.	.
=146	=146	=146	=146	=146	=146	=146	=146
1r	.	1E	-cta(m)	2c\	-cam	2.e\	-tho-
.	.	.	.	2B\	.	.	.
.	.	.	.	.	.	4e\	-li-
2.A\	ca-	2r	.	1A	.	1c	-ca(m)
.	.	1A	Ca-	.	.	.	.
4G\	.	.	.	.	.	.	.
=147	=147	=147	=147	=147	=147	=147	=147
2F\	-tho-	.	.	1r	.	0r	.
2E\	.	2G/	-tho-	.	.	.	.
2D/	.	2F/	-li-	2r	.	.	.
2C/	-li-	1E	-ca(m)	2A\	et	.	.
=148	=148	=148	=148	=148	=148	=148	=148
1BB	-ca(m)	.	.	2B\	a-	1r	.
.	.	2D/	.	2d\	-po-	.	.
2AA/	.	2E/	et	2.c\	-ſto-	2r	.
2C/	e(t)	1E	a-	.	.	2e\	et
!	!	!	!	!LO:SIC:v:t=custos c	!	!	!
.	.	.	.	4c\	-li-	.	.
!	!	!	!	!LO:LB:g=original	!	!	!
=149	=149	=149	=149	=149	=149	=149	=149
2C/	a-	.	.	2c\	-cam	2e\	a-
2C/	-po-	2E/	-po-	2c\	ec-	2e\	-po-
2GG/	-ſto-	2G/	-ſto-	2B\	-cle-	2.d\	-ſto-
!	!	!LO:SIC:v:t=custos F	!	!	!	!	!
2GG/	-li-	2G/	.	2B\	-ſi-	.	.
.	.	.	.	.	.	4d\	-li-
!	!	!LO:LB:g=original	!	!	!	!	!
=150	=150	=150	=150	=150	=150	=150	=150
1D	-ca(m)	2F/	-li-	1A	-am	1d	-cam
.	.	2F/	-cam	.	.	.	.
!LO:SIC:v:t=custos D	!	!	!	!	!	!	!
2AA/	ec-	2.A/	ec-	1r	.	2c/	ec-
!LO:LB:g=original	!	!	!	!	!	!	!
2.D/	-cle-	.	.	.	.	1d	-cle-
.	.	4G/	-cle-	.	.	.	.
=151	=151	=151	=151	=151	=151	=151	=151
.	.	4F/	.	1r	.	.	.
4C/	-Si-	4E/	.	.	.	.	.
4BB/	-am	1D	.	.	.	2d\	-ſi-
4AA/	.	.	.	.	.	.	.
1GG	.	.	.	2r	.	1d	-am
.	.	2D/	.	1d	Con-	.	.
=152	=152	=152	=152	=152	=152	=152	=152
0r	.	1E	-ſi-	.	.	2r	.
.	.	.	.	2c\	-fi-	1g	Con-
.	.	2D/	-am	2B\	-te-	.	.
.	.	1d	Con-	2A/	-or	2f\	-fi-
=153	=153	=153	=153	=153	=153	=153	=153
1r	.	.	.	1A	.	1e	-te-
.	.	2c\	-fi-	.	.	.	.
!	!	!	!	!	!	!LO:SIC:v:t=custos d	!
2r	.	1B	-te-	1r	.	2d\	-or
!	!	!	!	!	!	!LO:LB:g=original	!
1G	Con-	.	.	.	.	2.d\	u-
=154	=154	=154	=154	=154	=154	=154	=154
.	.	2A/	-or	2r	.	.	.
.	.	.	.	.	.	4e\	.
2F\	-fi-	1A	u-	1d	Con-	4f\	.
.	.	.	.	.	.	4d\	.
1E	-te-	.	.	.	.	4e\	.
.	.	.	.	.	.	4f\	.
.	.	2G/	-nu(m)	2c\	-fi-	2g\	-num
=155	=155	=155	=155	=155	=155	=155	=155
2D/	-or	2A/	bap-	2d\	-te-	2f\	.
1D	u-	2F/	-tiſ-	2.A/	-or	2d\	bap-
.	.	1E	-ma	.	.	1e	.
.	.	.	.	4B\	u-	.	.
2C/	-num	.	.	2c\	-num	.	.
=156	=156	=156	=156	=156	=156	=156	=156
1D	bap-	1F	in	2A/	bap-	2d\	-tiſ-
.	.	.	.	2A/	.	1d	-ma
1BB	-tiſ-	1G	re-	1d	-tiſ-	.	.
.	.	.	.	.	.	2g\	in
=157	=157	=157	=157	=157	=157	=157	=157
!	!	!	!	!LO:SIC:v:t=custos A	!	!	!
2AA/	-ſma	0A	-miſ-	1c	-ma	2e\	re-
2AA/	in	.	.	.	.	2e\	-miſ-
!	!	!	!	!LO:LB:g=original	!	!	!
1D	re-	.	.	2A/	in	1f	-ſi-
.	.	.	.	1d	re-	.	.
=158	=158	=158	=158	=158	=158	=158	=158
2GG/	-miſ-	1B	-ſi-	.	.	2d\	-o-
2GG/	-ſi-	.	.	2G/	-miſ-	2d\	-nem
2C/	-o-	1c	-o-	2G/	-ſi-	1e	pec-
2AA/	-(nem)	.	.	2c\	-o-	.	.
=159	=159	=159	=159	=159	=159	=159	=159
1D	pec-	2d\	-(nem)	1A	-nem	1f	.
!	!	!LO:SIC:v:t=custos e	!	!	!	!	!
.	.	2d\	pec-	.	.	.	.
!	!	!LO:LB:g=original	!	!	!	!	!
1AA	-ca-	1e	-ca-	2r	.	2e\	-ca-
.	.	.	.	2A/	pec-	1d	.
=160	=160	=160	=160	=160	=160	=160	=160
*lig	*	*	*	*	*	*	*
1AA	-to-	1e	-to-	2A/	-ca-	.	.
.	.	.	.	2A/	-to-	2c/	.
!	!	!	!	!	!	!LO:SIC:v:t=custos f	!
1D	.	1d	-ru(m)	2A/	-rum	2d\	.
!	!	!	!	!	!	!LO:LB:g=original	!
.	.	.	.	2d\	et	2f\	-to-
*Xlig	*	*	*	*	*	*	*
=161	=161	=161	=161	=161	=161	=161	=161
!LO:SIC:v:t=custos D	!	!	!	!	!	!	!
1AA	-rum	0r	.	2c\	.	1e	-rum
.	.	.	.	2A/	ex-	.	.
!LO:LB:g=original	!	!	!	!	!	!	!
1r	.	.	.	1B	-pec-	2r	.
.	.	.	.	.	.	2g\	et
=162	=162	=162	=162	=162	=162	=162	=162
2r	.	0r	.	2A/	-to	2f\	ex-
2D/	Et	.	.	2.B\	.	2d\	-pec-
2C/	ex-	.	.	.	.	1e	-to
.	.	.	.	4A/	.	.	.
2AA/	-pec-	.	.	1A	.	.	.
=163	=163	=163	=163	=163	=163	=163	=163
1BB	-to	2r	.	.	.	1d	.
.	.	2d\	et	2G/	.	.	.
1AA	.	2c\	ex-	1A	.	2r	.
.	.	2A/	-pec-	.	.	2e\	et
=164	=164	=164	=164	=164	=164	=164	=164
1r	.	1B	-to	1E	.	2e\	ex-
.	.	.	.	.	.	2e\	-pec-
2r	.	2A/	re-	2r	.	2c/	-to
1AA	re-	1A	-Sur-	1e	re-	1c	re-
=165	=165	=165	=165	=165	=165	=165	=165
.	.	.	.	.	.	.	.
!	!	!	!	!LO:SIC:v:t=custos d	!	!	!
2AA/	-ſur-	2A/	-rec-	2e\	-ſur-	2c/	-ſur-
!	!	!	!	!LO:LB:g=original	!	!	!
1D	-rec-	2F/	-ti-	1d	-rec-	2f\	-rec-
.	.	2F/	-o-	.	.	2d\	-ti-
=166	=166	=166	=166	=166	=166	=166	=166
2AA/	-ti-	1E	-ne(m)	2c\	-ti-	2.e\	-o-
1C	-o-	.	.	1c	-o-	.	.
.	.	.	.	.	.	4f\	-nem
.	.	2E/	mor-	.	.	1g	.
2GG/	-(nem)	2G/	-tu-	2B\	-nem	.	.
=167	=167	=167	=167	=167	=167	=167	=167
4AA/	mor-	2.E/	.	1c	mor-	2c/	mor-
4BB/	.	.	.	.	.	.	.
4C/	.	.	.	.	.	1g	-tu-
4D/	.	4F/	.	.	.	.	.
2E\	.	2G/	-o-	2B\	-tu-	.	.
2C/	-tu-	1A	-rum	2c\	-o-	2e\	-o-
=168	=168	=168	=168	=168	=168	=168	=168
2D/	-o-	.	.	1B	-rum	2f\	-rum
!	!	!	!	!	!	!LO:SIC:v:t=custos e	!
2E\	-rum	2G/	.	.	.	2g\	.
!	!	!	!	!	!	!LO:LB:g=original	!
2AA/	.	1A	e(t)	1A	.	1e	et
2A\	mor-	.	.	.	.	.	.
=169	=169	=169	=169	=169	=169	=169	=169
2F\	.	1r	.	0r	.	2d\	.
2G\	-tu-	.	.	.	.	2e\	vi-
1E	-o-	2r	.	.	.	1g	-tam
.	.	2B\	vi-	.	.	.	.
=170	=170	=170	=170	=170	=170	=170	=170
!LO:SIC:v:t=custos BB	!	!	!	!	!	!	!
1D	-ru(m)	1d	-tam	0r	.	2f\	.
.	.	.	.	.	.	2d\	ven-
!LO:LB:g=original	!	!LO:SIC:v:t=custos A	!	!	!	!	!
1r	.	2c\	.	.	.	2e\	-tu-
!	!	!LO:LB:g=original	!	!	!	!	!
.	.	2A/	ven-	.	.	2f\	-ri
=171	=171	=171	=171	=171	=171	=171	=171
1r	.	2B\	-tu-	0r	.	2g\	Se-
.	.	2c\	-ri	.	.	2e\	-cu-
2r	.	2d\	Se-	.	.	0d	-li
2BB/	e(t)	2B\	-cu-	.	.	.	.
=172	=172	=172	=172	=172	=172	=172	=172
1D	vi-	0A	-li	2r	.	.	.
.	.	.	.	2A/	et	.	.
2C/	-tam	.	.	1c	vi-	1r	.
2AA/	ve(n)-	.	.	.	.	.	.
=173	=173	=173	=173	=173	=173	=173	=173
2BB/	-tu-	1r	.	2B/	-tam	1r	.
2C/	-ri	.	.	1A	ven-	.	.
2D/	S(ae)-	2r	.	.	.	2r	.
2BB/	-c(u)-	2D/	A-	2G/	.	1d	A-
=174	=174	=174	=174	=174	=174	=174	=174
1AA	-li	2.E/	-men	1A	-tu-	.	.
.	.	.	.	.	.	2c/	-men
.	.	4F/	.	.	.	.	.
2r	.	2G/	.	2d\	-ri	2B/	.
2AA/	se-	1A	.	2c\	Se-	2A/	.
=175	=175	=175	=175	=175	=175	=175	=175
1BB	-cu-	.	.	2B\	-cu-	1d	.
.	.	2G/	A-	2B\	-li	.	.
2AA/	-li	2A/	-men	2c\	a-	2c/	.
2.A\	A-	2D/	.	2d\	-men	2.f	a-
=176	=176	=176	=176	=176	=176	=176	=176
.	.	0F	.	0A	.	.	.
4G\	.	.	.	.	.	4e\	-men
4F\	-men	.	.	.	.	4d\	.
4E\	.	.	.	.	.	4c/	.
1D	.	.	.	.	.	1.d	.
=177	=177	=177	=177	=177	=177	=177	=177
*lig	*	*lig	*	*	*	*	*
0AA	.	0E	.	0A	.	.	.
.	.	.	.	.	.	4c/	A-
.	.	.	.	.	.	4B/	.
!	!	!	!	!	!	!LO:TX:t=P:problem=# below	!
.	.	.	.	.	.	1c#X	-men
=178	=178	=178	=178	=178	=178	=178	=178
!LO:TX:t=P:problem= fermata u góry i u dołu	!	!LO:TX:t=P:problem= fermata u góry i u dołu	!	!LO:TX:t=P:problem= fermata u góry i u dołu	!	!	!
0D;	.	0D;	.	0A;	.	0d;	.
*Xlig	*	*Xlig	*	*	*	*	*
==	==	==	==	==	==	==	==
*-	*-	*-	*-	*-	*-	*-	*-
!!!system-decoration: [(s1,s2,s3,s4)]
!!!ENC: Mateusz Solarz
!!!END: 2022-02-11
!!!AIN: 1 alto 1 bass 1 soprn 1 tenor
!!!ENC: Jan Barakat
!!!END: 2022-02-24
